packages/core/assets/Icons/download_done.svg

<svg viewBox="0 0 20 20" fill="none" xmlns="http://www.w3.org/2000/svg">
<path d="M7.95833 10.9583L15 3.91663C15.1667 3.74996 15.3646 3.66663 15.5937 3.66663C15.8229 3.66663 16.0208 3.74996 16.1875 3.91663C16.3542 4.08329 16.4375 4.28121 16.4375 4.51038C16.4375 4.73954 16.3542 4.93746 16.1875 5.10413L8.54166 12.75C8.37499 12.9166 8.18055 13 7.95833 13C7.73611 13 7.54166 12.9166 7.37499 12.75L3.81249 9.18746C3.64583 9.02079 3.56597 8.82288 3.57291 8.59371C3.57986 8.36454 3.66666 8.16663 3.83333 7.99996C3.99999 7.83329 4.19791 7.74996 4.42708 7.74996C4.65624 7.74996 4.85416 7.83329 5.02083 7.99996L7.95833 10.9583ZM4.99999 16.6666C4.76388 16.6666 4.56597 16.5868 4.40624 16.427C4.24652 16.2673 4.16666 16.0694 4.16666 15.8333C4.16666 15.5972 4.24652 15.3993 4.40624 15.2395C4.56597 15.0798 4.76388 15 4.99999 15H15C15.2361 15 15.434 15.0798 15.5937 15.2395C15.7535 15.3993 15.8333 15.5972 15.8333 15.8333C15.8333 16.0694 15.7535 16.2673 15.5937 16.427C15.434 16.5868 15.2361 16.6666 15 16.6666H4.99999Z" fill="currentColor"/>
</svg>

<svg xmlns="http://www.w3.org/2000/svg" width="20" height="20" fill="none" viewBox="0 0 20 20">
  <path fill="#201F1F" d="M7.958 10.958 15 3.917a.811.811 0 0 1 .594-.25c.229 0 .427.083.594.25.166.166.25.364.25.593 0 .23-.084.427-.25.594L8.541 12.75a.8.8 0 0 1-.584.25.8.8 0 0 1-.583-.25L3.812 9.187a.776.776 0 0 1-.24-.593A.85.85 0 0 1 3.834 8a.811.811 0 0 1 .594-.25.81.81 0 0 1 .594.25l2.937 2.958ZM5 16.667a.806.806 0 0 1-.594-.24.806.806 0 0 1-.24-.594c0-.236.08-.434.24-.594A.806.806 0 0 1 5 15h10c.236 0 .434.08.594.24.16.16.24.357.24.593s-.08.434-.24.594a.806.806 0 0 1-.594.24H5Z"/>
</svg>
